Educa/src/img/int-card02.svg

<svg width="112" height="54" viewBox="0 0 112 54" fill="none" xmlns="http://www.w3.org/2000/svg">
<rect x="0.325439" y="0.105469" width="111.456" height="53.156" rx="4.28678" fill="white"/>
<rect x="47.4799" y="30.9703" width="53.156" height="3.42942" fill="#ECEFF6"/>
<rect x="47.4799" y="19.8247" width="30.8648" height="3.42942" fill="#ECEFF6"/>
<circle cx="26.4747" cy="27.1122" r="14.1464" fill="#FF5600"/>
<g clip-path="url(#clip0_103_248)">
<path d="M32.6531 28.0818L27.2219 33.5201C26.9015 33.84 26.4807 34 26.0601 34C25.6396 34 25.2193 33.8402 24.8992 33.5206L19.4037 28.085C19.0357 27.7176 18.9269 27.1725 19.1246 26.6944C19.3226 26.2159 19.7855 25.9067 20.3038 25.9067H22.1164V24.3206C22.1164 24.0186 22.3613 23.7737 22.6634 23.7737C22.9654 23.7737 23.2103 24.0186 23.2103 24.3206V26.4536C23.2103 26.7556 22.9654 27.0004 22.6634 27.0004H20.3038C20.1976 27.0004 20.1527 27.0707 20.1354 27.1127C20.1143 27.1634 20.1042 27.2386 20.1747 27.3091L25.6702 32.7448C25.8861 32.9604 26.2344 32.9604 26.4486 32.7466L31.8792 27.3089C31.9496 27.2384 31.9393 27.1632 31.9183 27.1125C31.901 27.0707 31.856 27.0004 31.7498 27.0004H29.4997C29.1977 27.0004 28.9529 26.7556 28.9529 26.4536V24.3205C28.9529 24.0185 29.1977 23.7737 29.4997 23.7737C29.8018 23.7737 30.0466 24.0185 30.0466 24.3205V25.9066H31.7498C32.2678 25.9066 32.7305 26.2155 32.9287 26.6936C33.1266 27.171 33.0185 27.716 32.6531 28.0818ZM22.6634 21.0939C22.9654 21.0939 23.2103 20.8489 23.2103 20.5469C23.2103 20.2448 22.9654 20 22.6634 20C22.3613 20 22.1164 20.2448 22.1164 20.5469C22.1164 20.8489 22.3613 21.0939 22.6634 21.0939ZM22.6634 23.008C22.9654 23.008 23.2103 22.7631 23.2103 22.461C23.2103 22.1591 22.9654 21.9142 22.6634 21.9142C22.3613 21.9142 22.1164 22.1591 22.1164 22.461C22.1164 22.7631 22.3613 23.008 22.6634 23.008ZM29.4997 21.0939C29.8018 21.0939 30.0466 20.8489 30.0466 20.5469C30.0466 20.2448 29.8018 20 29.4997 20C29.1977 20 28.9529 20.2448 28.9529 20.5469C28.9529 20.8489 29.1977 21.0939 29.4997 21.0939ZM29.4997 23.008C29.8018 23.008 30.0466 22.7631 30.0466 22.461C30.0466 22.1591 29.8018 21.9142 29.4997 21.9142C29.1977 21.9142 28.9529 22.1591 28.9529 22.461C28.9529 22.7631 29.1977 23.008 29.4997 23.008ZM26.3723 28.2037H25.5579C25.4276 28.2037 25.2874 28.1288 25.2874 27.9644C25.2874 27.6623 25.0425 27.4175 24.7405 27.4175C24.4385 27.4175 24.1936 27.6623 24.1936 27.9644C24.1936 28.6952 24.7664 29.2708 25.5067 29.2962V29.5983C25.5067 29.9004 25.7515 30.1452 26.0536 30.1452C26.3556 30.1452 26.6006 29.9004 26.6006 29.5983V29.2816C27.3528 29.1769 27.9137 28.5609 27.9137 27.7935V27.461C27.9137 27.0477 27.7519 26.6616 27.4582 26.374C27.1686 26.0902 26.7829 25.934 26.3723 25.934H25.8711C25.6303 25.934 25.4267 25.721 25.4267 25.4691V25.2697C25.4267 25.0248 25.6178 24.8402 25.8711 24.8402H26.3451C26.4844 24.8402 26.6284 24.9334 26.6284 25.0895C26.6284 25.3915 26.8734 25.6363 27.1753 25.6363C27.4774 25.6363 27.7223 25.3915 27.7223 25.0895C27.7223 24.434 27.2382 23.8871 26.6006 23.7699V23.4182C26.6006 23.1161 26.3558 22.8713 26.0537 22.8713C25.7516 22.8713 25.5067 23.1161 25.5067 23.4182V23.7887C25.236 23.8526 24.9881 23.9875 24.787 24.1842C24.4941 24.4708 24.3328 24.8563 24.3328 25.2697V25.4691C24.3328 26.3286 25.023 27.0278 25.8711 27.0278H26.3723C26.6233 27.0278 26.8198 27.2181 26.8198 27.461V27.7935C26.8198 28.0628 26.5947 28.2037 26.3723 28.2037Z" fill="white"/>
</g>
<defs>
<clipPath id="clip0_103_248">
<rect width="14" height="14" fill="white" transform="translate(19 20)"/>
</clipPath>
</defs>
</svg>

<svg xmlns="http://www.w3.org/2000/svg" width="112" height="54" fill="none" xmlns:v="https://vecta.io/nano"><rect x=".325" y=".105" width="111.456" height="53.156" rx="4.287" fill="#fff"/><path d="M47.48 30.97h53.156v3.43H47.48zm0-11.145h30.865v3.429H47.48z" fill="#eceff6"/><circle cx="26.475" cy="27.112" r="14.146" fill="#ff5600"/><g clip-path="url(#A)"><path d="M32.653 28.082l-5.431 5.438a1.64 1.64 0 0 1-2.323.001l-5.495-5.436a1.27 1.27 0 0 1 .9-2.178h1.813v-1.586c0-.302.245-.547.547-.547s.547.245.547.547v2.133c0 .302-.245.547-.547.547h-2.36c-.106 0-.151.07-.168.112-.021.051-.031.126.039.196l5.496 5.436a.55.55 0 0 0 .778.002l5.431-5.438c.07-.071.06-.146.039-.196-.017-.042-.062-.112-.168-.112H29.5c-.302 0-.547-.245-.547-.547v-2.133c0-.302.245-.547.547-.547s.547.245.547.547v1.586h1.703a1.27 1.27 0 0 1 .903 2.175zm-9.99-6.988c.302 0 .547-.245.547-.547S22.965 20 22.663 20s-.547.245-.547.547.245.547.547.547zm0 1.914c.302 0 .547-.245.547-.547s-.245-.547-.547-.547-.547.245-.547.547.245.547.547.547zm6.836-1.914c.302 0 .547-.245.547-.547S29.802 20 29.5 20s-.547.245-.547.547.245.547.547.547zm0 1.914c.302 0 .547-.245.547-.547s-.245-.547-.547-.547-.547.245-.547.547.245.547.547.547zm-3.127 5.196h-.814c-.13 0-.27-.075-.27-.239 0-.302-.245-.547-.547-.547s-.547.245-.547.547c0 .731.573 1.306 1.313 1.332v.302c0 .302.245.547.547.547s.547-.245.547-.547v-.317c.752-.105 1.313-.721 1.313-1.488v-.333a1.51 1.51 0 0 0-.455-1.087 1.54 1.54 0 0 0-1.086-.44h-.501c-.241 0-.444-.213-.444-.465v-.199c0-.245.191-.43.444-.43h.474c.139 0 .283.093.283.249 0 .302.245.547.547.547s.547-.245.547-.547c0-.655-.484-1.202-1.122-1.32v-.352c0-.302-.245-.547-.547-.547s-.547.245-.547.547v.37a1.53 1.53 0 0 0-.72.396c-.293.287-.454.672-.454 1.085v.199c0 .86.69 1.559 1.538 1.559h.501c.251 0 .448.19.448.433v.333c0 .269-.225.41-.448.41z" fill="#fff"/></g><defs><clipPath id="A"><path fill="#fff" transform="translate(19 20)" d="M0 0h14v14H0z"/></clipPath></defs></svg>
